static/fa/svgs/solid/cash-register.svg

<svg xmlns="http://www.w3.org/2000/svg" viewBox="0 0 512 512"><!--! Font Awesome Free 6.1.1 by @fontawesome - https://fontawesome.com License - https://fontawesome.com/license/free (Icons: CC BY 4.0, Fonts: SIL OFL 1.1, Code: MIT License) Copyright 2022 Fonticons, Inc.--><path d="M288 0c17.7 0 32 14.33 32 32v64c0 17.7-14.3 32-32 32h-80v32h216.1c32.5 0 59.4 23.1 64.1 54.4l22.7 149.7c.7 4.7 1.1 9.5 1.1 14.3V448c0 35.3-28.7 64-64 64H64c-35.35 0-64-28.7-64-64v-69.6c0-4.8.362-9.6 1.083-14.3L23.76 214.4C28.5 183.1 55.39 160 87.03 160h56.07v-32h-80c-16.77 0-32-14.3-32-32V32c0-17.67 15.23-32 32-32H288zM96 48c-8.84 0-16 7.16-16 16s7.16 16 16 16h160c8.8 0 16-7.16 16-16s-7.2-16-16-16H96zM80 448h352c8.8 0 16-7.2 16-16s-7.2-16-16-16H80c-8.84 0-16 7.2-16 16s7.16 16 16 16zm32-232c-13.25 0-24 10.7-24 24s10.75 24 24 24c13.3 0 24-10.7 24-24s-10.7-24-24-24zm96 48c13.3 0 24-10.7 24-24s-10.7-24-24-24-24 10.7-24 24 10.7 24 24 24zm-48 32c-13.3 0-24 10.7-24 24s10.7 24 24 24 24-10.7 24-24-10.7-24-24-24zm144-32c13.3 0 24-10.7 24-24s-10.7-24-24-24-24 10.7-24 24 10.7 24 24 24zm-48 32c-13.3 0-24 10.7-24 24s10.7 24 24 24 24-10.7 24-24-10.7-24-24-24zm144-32c13.3 0 24-10.7 24-24s-10.7-24-24-24-24 10.7-24 24 10.7 24 24 24zm-48 32c-13.3 0-24 10.7-24 24s10.7 24 24 24 24-10.7 24-24-10.7-24-24-24z"/></svg>

<svg xmlns="http://www.w3.org/2000/svg" viewBox="0 0 512 512"><!--! Font Awesome Free 6.1.1 by @fontawesome - https://fontawesome.com License - https://fontawesome.com/license/free (Icons: CC BY 4.0, Fonts: SIL OFL 1.1, Code: MIT License) Copyright 2022 Fonticons, Inc. --><path d="M288 0C305.7 0 320 14.33 320 32V96C320 113.7 305.7 128 288 128H208V160H424.1C456.6 160 483.5 183.1 488.2 214.4L510.9 364.1C511.6 368.8 512 373.6 512 378.4V448C512 483.3 483.3 512 448 512H64C28.65 512 0 483.3 0 448V378.4C0 373.6 .3622 368.8 1.083 364.1L23.76 214.4C28.5 183.1 55.39 160 87.03 160H143.1V128H63.1C46.33 128 31.1 113.7 31.1 96V32C31.1 14.33 46.33 0 63.1 0L288 0zM96 48C87.16 48 80 55.16 80 64C80 72.84 87.16 80 96 80H256C264.8 80 272 72.84 272 64C272 55.16 264.8 48 256 48H96zM80 448H432C440.8 448 448 440.8 448 432C448 423.2 440.8 416 432 416H80C71.16 416 64 423.2 64 432C64 440.8 71.16 448 80 448zM112 216C98.75 216 88 226.7 88 240C88 253.3 98.75 264 112 264C125.3 264 136 253.3 136 240C136 226.7 125.3 216 112 216zM208 264C221.3 264 232 253.3 232 240C232 226.7 221.3 216 208 216C194.7 216 184 226.7 184 240C184 253.3 194.7 264 208 264zM160 296C146.7 296 136 306.7 136 320C136 333.3 146.7 344 160 344C173.3 344 184 333.3 184 320C184 306.7 173.3 296 160 296zM304 264C317.3 264 328 253.3 328 240C328 226.7 317.3 216 304 216C290.7 216 280 226.7 280 240C280 253.3 290.7 264 304 264zM256 296C242.7 296 232 306.7 232 320C232 333.3 242.7 344 256 344C269.3 344 280 333.3 280 320C280 306.7 269.3 296 256 296zM400 264C413.3 264 424 253.3 424 240C424 226.7 413.3 216 400 216C386.7 216 376 226.7 376 240C376 253.3 386.7 264 400 264zM352 296C338.7 296 328 306.7 328 320C328 333.3 338.7 344 352 344C365.3 344 376 333.3 376 320C376 306.7 365.3 296 352 296z"/></svg>
